favicon.svg

<svg
   height="50px" width="50px"  
   xmlns="http://www.w3.org/2000/svg" viewBox="0 0 520 597"
   >
  <g
     >
    <path
       fill="black"
       d="m 427.5,16.5 v 20 c -111.667,-0.1667 -223.334,0 -335,0.5 -1.2375,0.2321 -2.2375,0.7321 -3,1.5 -17.6063,7.5376 -25.1063,20.871 -22.5,40 3.7061,12.7762 11.8728,21.1096 24.5,25 120.499,1 241.166,1.333 362,1 v 1 1 c 1.12028,164.94746 0,298.85948 0,449 -2.283,14.615 -10.616,23.281 -25,26 -126.66394,2.44775 -272.9724,1.51997 -376.667371,-0.30652 C 49.768329,581.00648 45.4357,579.813 43.5,579 34.8042,573.965 29.6375,566.465 28,556.5 c 6.413502,-47.47681 -0.804346,-454.15889 0,-493 0.1439,-9.6139 3.3106,-17.9473 9.5,-25 0.6174,-0.1107 1.1174,-0.444 1.5,-1 C 50.802089,24.385381 58.774586,20.651182 72.213262,16.786738 189.46223,14.104476 309.27911,16.5 427.5,16.5 Z"
     />
  </g>
  <g
     >
    <path
       fill="black"
       d="m 484.5,166.5 c 1.333,0 2.667,0 4,0 12.254,4.445 19.254,13.278 21,26.5 -1.118,15.945 -9.452,25.445 -25,28.5 -6.333,0 -12.667,0 -19,0 0,-18.333 0,-36.667 0,-55 6.333,0 12.667,0 19,0 z"
       />
  </g>
  <g
   >
    <path      
       d="m 198.5,239.5 c 0.223,3.662 1.223,6.995 3,10 3.564,8.273 4.897,16.939 4,26 -6.901,9.407 -14.735,18.073 -23.5,26 -2.27,4.43 -2.937,9.097 -2,14 5.422,10.764 12.422,20.43 21,29 17.309,19.98 36.475,37.814 57.5,53.5 8.504,5.025 16.504,4.359 24,-2 6.697,-7.032 13.697,-13.698 21,-20 7.787,-0.811 15.453,-0.145 23,2 24.671,6.835 47.004,18.168 67,34 1.258,1.741 2.258,3.574 3,5.5 0.153,6.369 -0.18,12.703 -1,19 -2.125,17.201 -6.958,33.534 -14.5,49 -5.259,9.875 -13.425,13.375 -24.5,10.5 -11.013,-1.102 -21.68,-3.269 -32,-6.5 -2.405,-1.268 -5.072,-1.935 -8,-2 C 271.822,473.31 232.155,450.477 197.5,419 159.693,385.211 129.527,345.711 107,300.5 96.0322,276.259 88.6989,250.925 85,224.5 c -0.6667,-5 -0.6667,-10 0,-15 0.6355,-1.466 1.4688,-2.8 2.5,-4 11.806,-8.438 24.806,-14.271 39,-17.5 12.509,-3.059 25.175,-4.059 38,-3 1.833,1.167 3.667,2.333 5.5,3.5 11.979,15.559 21.479,32.559 28.5,51 z"
      />
  </g>
  <g
     >
    <path
       fill="black"
       d="m 484.5,258.5 c 19.108,4.533 26.941,16.533 23.5,36 -3.697,9.898 -10.53,16.231 -20.5,19 -7.333,0 -14.667,0 -22,0 0,-18.333 0,-36.667 0,-55 6.333,0 12.667,0 19,0 z"
      />
  </g>
  <g
     >
    <path
       fill="black"
       d="M 485.5,350.5 C 505.701,356.231 512.868,369.231 507,389.5C 502.619,397.953 495.785,403.453 486.5,406C 479.508,406.5 472.508,406.666 465.5,406.5C 465.5,387.833 465.5,369.167 465.5,350.5C 472.167,350.5 478.833,350.5 485.5,350.5 Z"
     />
  </g>
  <g>
    <path
       fill="black"
       d="m 484.5,442.5 c 20.752,5.27 28.252,18.27 22.5,39 -4.677,9.343 -12.177,14.843 -22.5,16.5 -6.325,0.5 -12.658,0.666 -19,0.5 0,-18.667 0,-37.333 0,-56 6.333,0 12.667,0 19,0 z"
        />
  </g>
</svg>

<?xml version="1.0" encoding="UTF-8" standalone="no"?>
<svg
   version="1.1"
   width="520px"
   height="597px"
   style="shape-rendering:geometricPrecision; text-rendering:geometricPrecision; image-rendering:optimizeQuality; fill-rule:evenodd; clip-rule:evenodd"
   id="svg182"
   sodipodi:docname="phone-book-vector-business-design.svg"
   
   xmlns="http://www.w3.org/2000/svg"
   >
  <defs
     id="defs186" />
  <sodipodi:namedview
     id="namedview184"
     pagecolor="#ffffff"
     bordercolor="#000000"
     borderopacity="0.25"
     inkscape:showpageshadow="2"
     inkscape:pageopacity="0.0"
     inkscape:pagecheckerboard="0"
     inkscape:deskcolor="#d1d1d1"
     showgrid="false"
     inkscape:zoom="0.99137081"
     inkscape:cx="180.05372"
     inkscape:cy="341.95076"
     inkscape:window-width="1920"
     inkscape:window-height="1017"
     inkscape:window-x="-8"
     inkscape:window-y="-8"
     inkscape:window-maximized="1"
     inkscape:current-layer="svg182" />
  <g
     id="g4">
    <path
       style="opacity:1"
       fill="#fefefe"
       d="M -0.5,-0.5 C 83.5,-0.5 167.5,-0.5 251.5,-0.5C 256.329,4.49733 260.996,9.66399 265.5,15C 202.332,15.1671 139.332,15.6671 76.5,16.5C 74.5853,16.2155 72.9187,16.5489 71.5,17.5C 56.9724,19.4258 45.6391,26.4258 37.5,38.5C 31.3106,45.5527 28.1439,53.8861 28,63.5C 27.5,156.166 27.3333,248.833 27.5,341.5C 26.448,341.649 25.448,341.483 24.5,341C 21.9876,337.154 18.8209,333.988 15,331.5C 13.1739,332.01 13.0072,332.844 14.5,334C 5.69211,336.449 2.85878,341.949 6,350.5C 10.1635,355.711 15.3302,356.878 21.5,354C 23.9266,351.256 25.9266,348.423 27.5,345.5C 27.3333,415.834 27.5,486.167 28,556.5C 29.6375,566.465 34.8042,573.965 43.5,579C 45.4357,579.813 47.4357,580.313 49.5,580.5C 50.5676,581.434 51.901,581.768 53.5,581.5C 124.665,582.333 195.999,582.833 267.5,583C 271.647,585.98 275.314,589.48 278.5,593.5C 279.59,592.609 279.59,591.609 278.5,590.5C 276.01,587.845 273.344,585.345 270.5,583C 291.5,582.333 312.5,582.333 333.5,583C 340.885,594.321 348.218,594.321 355.5,583C 380.003,582.832 404.337,582.332 428.5,581.5C 442.884,578.781 451.217,570.115 453.5,555.5C 454.5,435.668 454.833,315.668 454.5,195.5C 462.297,194.051 462.297,193.051 454.5,192.5C 454.335,189.482 454.502,186.482 455,183.5C 457.446,186.287 459.946,188.953 462.5,191.5C 463.167,201.992 463.833,212.326 464.5,222.5C 471.354,222.824 478.021,222.491 484.5,221.5C 500.048,218.445 508.382,208.945 509.5,193C 507.754,179.778 500.754,170.945 488.5,166.5C 492.451,163.879 494.784,160.212 495.5,155.5C 495.167,154.167 494.833,152.833 494.5,151.5C 494.254,158.91 490.587,162.743 483.5,163C 482.572,162.612 481.905,161.945 481.5,161C 484.967,156.697 488.634,152.53 492.5,148.5C 489.367,144.76 485.367,143.593 480.5,145C 472.447,152.162 472.781,158.996 481.5,165.5C 479.833,165.5 478.167,165.5 476.5,165.5C 475.214,161.847 472.547,160.18 468.5,160.5C 464.435,160.364 461.435,162.03 459.5,165.5C 458.345,168.446 458.179,171.446 459,174.5C 459.197,176.861 460.364,178.528 462.5,179.5C 463.833,182.167 463.833,184.833 462.5,187.5C 460.155,184.656 457.655,181.99 455,179.5C 454.832,154.663 454.332,129.997 453.5,105.5C 453.5,105.167 453.5,104.833 453.5,104.5C 421.336,103.668 389.003,103.168 356.5,103C 353.349,99.3486 350.016,95.8486 346.5,92.5C 345.479,93.0016 345.312,93.6683 346,94.5C 348.5,97.6667 351.333,100.5 354.5,103C 326.827,103.833 299.161,103.667 271.5,102.5C 272.901,100.723 274.401,99.056 276,97.5C 277.484,84.6581 271.984,80.1581 259.5,84C 257.062,86.2949 255.562,89.1283 255,92.5C 254.107,91.2888 253.274,91.2888 252.5,92.5C 254.817,96.1464 257.484,99.4797 260.5,102.5C 204.171,103.5 147.837,103.833 91.5,103.5C 78.8728,99.6096 70.7061,91.2762 67,78.5C 64.3937,59.371 71.8937,46.0376 89.5,38.5C 158.814,37.1799 228.147,37.1799 297.5,38.5C 298.5,40.1667 299.833,41.5 301.5,42.5C 300.833,43.5 300.167,44.5 299.5,45.5C 299.833,45.8333 300.167,46.1667 300.5,46.5C 301.768,45.5721 303.101,45.4054 304.5,46C 307.194,48.6937 309.86,51.3604 312.5,54C 314.81,54.4966 317.143,54.6633 319.5,54.5C 319.719,53.325 319.386,52.325 318.5,51.5C 317.232,52.4279 315.899,52.5946 314.5,52C 311.667,49.1667 308.833,46.3333 306,43.5C 305.873,42.2234 306.373,41.0567 307.5,40C 307.167,39.5 306.833,39 306.5,38.5C 304.302,41.2433 302.302,41.0767 300.5,38C 303.964,37.1834 307.298,37.5167 310.5,39C 313.689,43.5219 317.522,47.3553 322,50.5C 323.257,50.1501 323.591,49.4835 323,48.5C 319.651,45.318 316.484,41.9846 313.5,38.5C 351.664,37.8333 389.664,37.1667 427.5,36.5C 427.5,29.8333 427.5,23.1667 427.5,16.5C 403.672,15.5024 379.672,15.1691 355.5,15.5C 355.799,13.396 355.466,11.396 354.5,9.5C 352.717,11.0225 352.051,13.0225 352.5,15.5C 350.143,15.6633 347.81,15.4966 345.5,15C 347.64,12.8604 349.806,10.6937 352,8.5C 352.749,7.36495 352.583,6.36495 351.5,5.5C 340.927,0.754874 334.927,4.08821 333.5,15.5C 311.823,15.833 290.156,15.4997 268.5,14.5C 263.119,9.78525 258.119,4.78525 253.5,-0.5C 342.167,-0.5 430.833,-0.5 519.5,-0.5C 519.5,198.5 519.5,397.5 519.5,596.5C 346.167,596.5 172.833,596.5 -0.5,596.5C -0.5,397.5 -0.5,198.5 -0.5,-0.5 Z"
       id="path2" />
  </g>
  <g
     id="g12">
    <path
       style="opacity:1"
       fill="#010101"
       d="m 427.5,16.5 v 20 c -111.667,-0.1667 -223.334,0 -335,0.5 -1.2375,0.2321 -2.2375,0.7321 -3,1.5 -17.6063,7.5376 -25.1063,20.871 -22.5,40 3.7061,12.7762 11.8728,21.1096 24.5,25 120.499,1 241.166,1.333 362,1 v 1 1 c 1.16995,93.91067 -0.40016,371.05723 0,371 -0.12147,0.38591 0,21 0,21 v 57 c -2.283,14.615 -10.616,23.281 -25,26 h -367 l -9.667371,-0.30652 C 49.768329,581.00648 45.4357,579.813 43.5,579 34.8042,573.965 29.6375,566.465 28,556.5 27.5,486.167 27.3333,415.834 27.5,345.5 v -4 c -0.1667,-92.667 0,-185.334 0.5,-278 0.1439,-9.6139 3.3106,-17.9473 9.5,-25 0.6174,-0.1107 1.1174,-0.444 1.5,-1 C 50.802089,24.385381 58.774586,20.651182 72.213262,16.786738 189.46223,14.104476 309.27911,16.5 427.5,16.5 Z"
       id="path10"
       sodipodi:nodetypes="cccccccccccccccccccccccc" />
  </g>
  <g
     id="g24" />
  <g
     id="g52">
    <path
       style="opacity:1"
       fill="#020202"
       d="M 484.5,166.5 C 485.833,166.5 487.167,166.5 488.5,166.5C 500.754,170.945 507.754,179.778 509.5,193C 508.382,208.945 500.048,218.445 484.5,221.5C 478.167,221.5 471.833,221.5 465.5,221.5C 465.5,203.167 465.5,184.833 465.5,166.5C 471.833,166.5 478.167,166.5 484.5,166.5 Z"
       id="path50" />
  </g>
  <g
     id="g60">
    <path
       style="opacity:1"
       fill="#fcfcfc"
       d="M 198.5,239.5 C 198.723,243.162 199.723,246.495 201.5,249.5C 205.064,257.773 206.397,266.439 205.5,275.5C 198.599,284.907 190.765,293.573 182,301.5C 179.73,305.93 179.063,310.597 180,315.5C 185.422,326.264 192.422,335.93 201,344.5C 218.309,364.48 237.475,382.314 258.5,398C 267.004,403.025 275.004,402.359 282.5,396C 289.197,388.968 296.197,382.302 303.5,376C 311.287,375.189 318.953,375.855 326.5,378C 351.171,384.835 373.504,396.168 393.5,412C 394.758,413.741 395.758,415.574 396.5,417.5C 396.653,423.869 396.32,430.203 395.5,436.5C 393.375,453.701 388.542,470.034 381,485.5C 375.741,495.375 367.575,498.875 356.5,496C 345.487,494.898 334.82,492.731 324.5,489.5C 322.095,488.232 319.428,487.565 316.5,487.5C 271.822,473.31 232.155,450.477 197.5,419C 159.693,385.211 129.527,345.711 107,300.5C 96.0322,276.259 88.6989,250.925 85,224.5C 84.3333,219.5 84.3333,214.5 85,209.5C 85.6355,208.034 86.4688,206.7 87.5,205.5C 99.306,197.062 112.306,191.229 126.5,188C 139.009,184.941 151.675,183.941 164.5,185C 166.333,186.167 168.167,187.333 170,188.5C 181.979,204.059 191.479,221.059 198.5,239.5 Z"
       id="path58" />
  </g>
  <g
     id="g72">
    <path
       style="opacity:1"
       fill="#999999"
       d="M 198.5,239.5 C 200.277,242.505 201.277,245.838 201.5,249.5C 199.723,246.495 198.723,243.162 198.5,239.5 Z"
       id="path70" />
  </g>
  <g
     id="g76">
    <path
       style="opacity:1"
       fill="#020202"
       d="M 484.5,258.5 C 503.608,263.033 511.441,275.033 508,294.5C 504.303,304.398 497.47,310.731 487.5,313.5C 480.167,313.5 472.833,313.5 465.5,313.5C 465.5,295.167 465.5,276.833 465.5,258.5C 471.833,258.5 478.167,258.5 484.5,258.5 Z"
       id="path74" />
  </g>
  <g
     id="g120">
    <path
       style="opacity:1"
       fill="#020202"
       d="M 485.5,350.5 C 505.701,356.231 512.868,369.231 507,389.5C 502.619,397.953 495.785,403.453 486.5,406C 479.508,406.5 472.508,406.666 465.5,406.5C 465.5,387.833 465.5,369.167 465.5,350.5C 472.167,350.5 478.833,350.5 485.5,350.5 Z"
       id="path118" />
  </g>
  <g
     id="g132">
    <path
       style="opacity:1"
       fill="#030303"
       d="M 262.5,367.5 C 269.391,366.731 273.391,369.731 274.5,376.5C 273.089,383.044 269.089,385.211 262.5,383C 257.208,377.835 257.208,372.668 262.5,367.5 Z"
       id="path130" />
  </g>
  <g
     id="g140">
    <path
       style="opacity:1"
       fill="#070707"
       d="M 484.5,442.5 C 505.252,447.77 512.752,460.77 507,481.5C 502.323,490.843 494.823,496.343 484.5,498C 478.175,498.5 471.842,498.666 465.5,498.5C 465.5,479.833 465.5,461.167 465.5,442.5C 471.833,442.5 478.167,442.5 484.5,442.5 Z"
       id="path138" />
  </g>
  <g
     id="g148">
    <path
       style="opacity:1"
       fill="#888888"
       d="M 316.5,487.5 C 319.428,487.565 322.095,488.232 324.5,489.5C 321.505,489.706 318.838,489.04 316.5,487.5 Z"
       id="path146" />
  </g>
  <g
     id="g180">
    <path
       style="opacity:1"
       fill="#e9e9e9"
       d="M 53.5,581.5 C 53.8333,581.5 54.1667,581.5 54.5,581.5C 56.1667,581.5 57.8333,581.5 59.5,581.5C 60.1667,581.5 60.8333,581.5 61.5,581.5C 183.833,581.5 306.167,581.5 428.5,581.5C 404.337,582.332 380.003,582.832 355.5,583C 348.218,594.321 340.885,594.321 333.5,583C 312.5,582.333 291.5,582.333 270.5,583C 273.344,585.345 276.01,587.845 278.5,590.5C 279.59,591.609 279.59,592.609 278.5,593.5C 275.314,589.48 271.647,585.98 267.5,583C 195.999,582.833 124.665,582.333 53.5,581.5 Z"
       id="path178" />
  </g>
</svg>
